images/footer/telegram.svg

<svg width="48" height="48" viewBox="0 0 48 48" fill="none" xmlns="http://www.w3.org/2000/svg">
<rect width="48" height="48" rx="24" fill="#F6F6F6"/>
<path fill-rule="evenodd" clip-rule="evenodd" d="M15.3749 22.8184C20.7436 20.4193 24.3236 18.8377 26.1148 18.0735C31.2292 15.8917 32.2919 15.5126 32.9846 15.5001C33.1369 15.4974 33.4776 15.5361 33.6982 15.7197C33.8845 15.8748 33.9358 16.0843 33.9603 16.2313C33.9848 16.3783 34.0154 16.7132 33.9911 16.9749C33.714 19.9617 32.5147 27.2098 31.9046 30.555C31.6465 31.9705 31.1382 32.4451 30.6461 32.4916C29.5766 32.5925 28.7645 31.7667 27.7287 31.0702C26.1078 29.9805 25.1921 29.3021 23.6188 28.2387C21.8005 27.0097 22.9792 26.3343 24.0154 25.2304C24.2866 24.9415 28.9987 20.5455 29.0899 20.1467C29.1013 20.0968 29.1119 19.9109 29.0042 19.8127C28.8965 19.7146 28.7376 19.7481 28.6229 19.7748C28.4604 19.8127 25.871 21.5681 20.8549 25.041C20.1199 25.5587 19.4542 25.8109 18.8577 25.7977C18.2001 25.7831 16.9353 25.4163 15.995 25.1028C14.8417 24.7183 13.925 24.515 14.0048 23.862C14.0464 23.5218 14.5031 23.174 15.3749 22.8184Z" fill="black"/>
</svg>

<svg xmlns="http://www.w3.org/2000/svg" width="48" height="48" fill="none" viewBox="0 0 48 48"><rect width="48" height="48" fill="#f6f6f6" rx="24"/><path fill="#000" fill-rule="evenodd" d="M15.375 22.818q8.054-3.598 10.74-4.745c5.114-2.181 6.177-2.56 6.87-2.573.152-.003.493.036.713.22.187.155.238.364.262.511s.055.482.031.744c-.277 2.987-1.476 10.235-2.086 13.58-.259 1.416-.767 1.89-1.259 1.937-1.07.1-1.881-.725-2.917-1.422-1.621-1.09-2.537-1.768-4.11-2.831-1.819-1.23-.64-1.905.396-3.009.272-.288 4.984-4.684 5.075-5.083.011-.05.022-.236-.086-.334s-.266-.065-.381-.038q-.244.057-7.768 5.266-1.102.777-1.997.757c-.658-.015-1.923-.382-2.863-.695-1.153-.385-2.07-.588-1.99-1.241q.062-.51 1.37-1.044" clip-rule="evenodd"/></svg>
